source/images/2-grey.svg

<svg xmlns="http://www.w3.org/2000/svg" width="313" height="434" viewBox="0 0 313 434"><g fill="none"><path fill="#FFF" d="M-1234-292h1920v1024h-1920z"/><path fill="#F8F8F8" d="M136.356 353.4v-6.2l127.06-120.9c9.297-8.68 17.354-17.98 24.792-28.52 12.396-16.74 24.792-39.68 24.792-61.38v-43.4c0-52.7-39.667-93-99.168-93h-207.634v52.7l24.792 27.9h148.753c12.396 0 21.693 9.3 21.693 21.08v34.72c0 8.06-5.579 16.12-11.157 22.94-3.099 4.34-6.818 8.06-10.536 11.16l-179.743 189.1v74.4h313v-80.6h-176.644z"/></g></svg>

<svg xmlns="http://www.w3.org/2000/svg" width="313" height="434" viewBox="0 0 313 434">
    <g fill="none" fill-rule="evenodd">
        <path fill="#FFF" d="M-1234-292H686V732h-1920z"/>
        <path fill="#F8F8F8" d="M136.356 353.4v-6.2l127.06-120.9c9.297-8.68 17.354-17.98 24.792-28.52C300.604 181.04 313 158.1 313 136.4V93c0-52.7-39.667-93-99.168-93H6.198v52.7L30.99 80.6h148.753c12.396 0 21.693 9.3 21.693 21.08v34.72c0 8.06-5.579 16.12-11.157 22.94-3.099 4.34-6.818 8.06-10.536 11.16L0 359.6V434h313v-80.6H136.356z"/>
    </g>
</svg>
